!!!COM: 菅田将暉
!!!OTL: まちがいさがし
**kern	**kern	**text	**kern	**text	**kern	**text	**kern	**text	**kern	**text
*part6	*part5	*part5	*part4	*part4	*part3	*part3	*part2	*part2	*part1	*part1
*staff6	*staff5	*staff5	*staff4	*staff4	*staff3	*staff3	*staff2	*staff2	*staff1	*staff1
*I"バラッチさん	*I"がっくんさん	*	*I"バラッチさん	*	*I"Ｍｉｙｕｋａさん	*	*I"れいちょるさん	*	*I"Mayuさん	*
*I'drums	*I'bass	*	*I'3rd	*	*I'2nd	*	*I'1st	*	*I'ld.	*
*clefX	*clefF4	*	*clefGv2	*	*clefG2	*	*clefG2	*	*clefGv2	*
*k[]	*k[f#c#]	*	*k[f#c#]	*	*k[f#c#]	*	*k[f#c#]	*	*k[f#c#]	*
*M4/4	*M4/4	*	*M4/4	*	*M4/4	*	*M4/4	*	*M4/4	*
*MM77	*MM77	*	*MM77	*	*MM77	*	*MM77	*	*MM77	*
=1	=1	=1	=1	=1	=1	=1	=1	=1	=1	=1
1r	1r	.	1r	.	1r	.	1r	.	4r	.
.	.	.	.	.	.	.	.	.	4r	.
.	.	.	.	.	.	.	.	.	8r	.
.	.	.	.	.	.	.	.	.	16r	.
.	.	.	.	.	.	.	.	.	16AA	ま
.	.	.	.	.	.	.	.	.	8F#L	ち
.	.	.	.	.	.	.	.	.	16EL	が
.	.	.	.	.	.	.	.	.	16EJJ	い
=2	=2	=2	=2	=2	=2	=2	=2	=2	=2	=2
1r	1r	.	2d	.	2f#	.	2a	.	8D	.
.	.	.	.	.	.	.	.	.	16r	.
.	.	.	.	.	.	.	.	.	16D	さ
.	.	.	.	.	.	.	.	.	8F#L	が
.	.	.	.	.	.	.	.	.	16AL	し
.	.	.	.	.	.	.	.	.	16AJJ	の
.	.	.	2d	.	4g	.	2b	.	8B	.
.	.	.	.	.	.	.	.	.	16r	.
.	.	.	.	.	.	.	.	.	16B	ま
.	.	.	.	.	4a	.	.	.	8c#L	ち
.	.	.	.	.	.	.	.	.	16BL	が
.	.	.	.	.	.	.	.	.	16BJJ	い
=3	=3	=3	=3	=3	=3	=3	=3	=3	=3	=3
1r	1r	.	2f#	.	2a#X	.	2cc#	.	8A#X	.
.	.	.	.	.	.	.	.	.	16r	.
.	.	.	.	.	.	.	.	.	16A#	の
.	.	.	.	.	.	.	.	.	8BL	ほ
.	.	.	.	.	.	.	.	.	16c#L	う
.	.	.	.	.	.	.	.	.	16c#JJ	に
.	.	.	2f#	.	2b	.	4dd	.	8d	.
.	.	.	.	.	.	.	.	.	16r	.
.	.	.	.	.	.	.	.	.	16d	う
.	.	.	.	.	.	.	4cc#	.	8c#L	ま
.	.	.	.	.	.	.	.	.	16AnL	れ
.	.	.	.	.	.	.	.	.	[16BJJ	て
=4	=4	=4	=4	=4	=4	=4	=4	=4	=4	=4
1r	1r	.	2e	.	2g	.	2dd	.	8.BL]	.
.	.	.	.	.	.	.	.	.	16BJk	き
.	.	.	.	.	.	.	.	.	8AL	た
.	.	.	.	.	.	.	.	.	16F#L	よう
.	.	.	.	.	.	.	.	.	[16GJJ	な
.	.	.	2d	.	2f#	.	2dd	.	8.GL]	.
.	.	.	.	.	.	.	.	.	16BBJk	き
.	.	.	.	.	.	.	.	.	8GL	で
.	.	.	.	.	.	.	.	.	16F#L	い
.	.	.	.	.	.	.	.	.	16F#JJ	た
=5	=5	=5	=5	=5	=5	=5	=5	=5	=5	=5
1r	1r	.	1d	.	2r	.	4g	.	8E	.
.	.	.	.	.	.	.	.	.	16r	.
.	.	.	.	.	.	.	.	.	16AA	け
.	.	.	.	.	.	.	4g#X	.	4AA	ど
.	.	.	.	.	4f#	.	2a	.	8r	.
.	.	.	.	.	.	.	.	.	16r	.
.	.	.	.	.	.	.	.	.	16AA	ま
.	.	.	.	.	4c#	.	.	.	8F#L	ち
.	.	.	.	.	.	.	.	.	16EL	が
.	.	.	.	.	.	.	.	.	16EJJ	い
=6	=6	=6	=6	=6	=6	=6	=6	=6	=6	=6
1r	1r	.	2d	.	2f#	.	2a	.	8D	.
.	.	.	.	.	.	.	.	.	16r	.
.	.	.	.	.	.	.	.	.	16D	さ
.	.	.	.	.	.	.	.	.	8F#L	が
.	.	.	.	.	.	.	.	.	16AL	し
.	.	.	.	.	.	.	.	.	16AJJ	の
.	.	.	2d	.	4g	.	2b	.	8B	.
.	.	.	.	.	.	.	.	.	16r	.
.	.	.	.	.	.	.	.	.	16B	せ
.	.	.	.	.	4a	.	.	.	8c#L	い
.	.	.	.	.	.	.	.	.	16BL	か
.	.	.	.	.	.	.	.	.	16BJJ	い
=7	=7	=7	=7	=7	=7	=7	=7	=7	=7	=7
1r	1r	.	2e	.	2a#X	.	2cc#	.	8A#X	.
.	.	.	.	.	.	.	.	.	16r	.
.	.	.	.	.	.	.	.	.	16A#	の
.	.	.	.	.	.	.	.	.	8f#L	ほ
.	.	.	.	.	.	.	.	.	16eL	う
.	.	.	.	.	.	.	.	.	16eJJ	じゃ
.	.	.	2f#	.	2b	.	4dd	.	4d	.
.	.	.	.	.	.	.	4cc#	.	8c#L	き
.	.	.	.	.	.	.	.	.	8dJ	っと
=8	=8	=8	=8	=8	=8	=8	=8	=8	=8	=8
1r	1r	.	2e	.	2g	.	2.b	.	8r	.
.	.	.	.	.	.	.	.	.	16BLL	で
.	.	.	.	.	.	.	.	.	16c#JJ	あ
.	.	.	.	.	.	.	.	.	8.dL	え
.	.	.	.	.	.	.	.	.	16BJk	な
.	.	.	4d	.	2f#	.	.	.	8.AL	か
.	.	.	.	.	.	.	.	.	16F#Jk	った
.	.	.	4c#	.	.	.	4b	.	8F#L	と
.	.	.	.	.	.	.	.	.	16EL	お
.	.	.	.	.	.	.	.	.	16EJJ	も
=9	=9	=9	=9	=9	=9	=9	=9	=9	=9	=9
1r	1r	.	1d	.	2g	.	1a	.	2D	う
.	.	.	.	.	2f#	.	.	.	4r	.
.	.	.	.	.	.	.	.	.	8F#L	ふ
.	.	.	.	.	.	.	.	.	16F#L	さ
.	.	.	.	.	.	.	.	.	[16GJJ	わ
=10	=10	=10	=10	=10	=10	=10	=10	=10	=10	=10
1r	2G	.	8r	.	4r	.	4r	.	8G]	し
.	.	.	4d	.	.	.	.	.	4B	く
.	.	.	.	.	4g	.	4b	.	.	.
.	.	.	8r	.	.	.	.	.	4r	.
.	2D	.	2d	.	2f#	.	2a	.	.	.
.	.	.	.	.	.	.	.	.	16r	.
.	.	.	.	.	.	.	.	.	16A	わ
.	.	.	.	.	.	.	.	.	8AL	らい
.	.	.	.	.	.	.	.	.	16AL	あ
.	.	.	.	.	.	.	.	.	[16c#JJ	え
=11	=11	=11	=11	=11	=11	=11	=11	=11	=11	=11
1r	2AA	.	2d	.	2f#	.	2a	.	8c#L]	.
.	.	.	.	.	.	.	.	.	8dJ	る
.	.	.	.	.	.	.	.	.	8AL	.
.	.	.	.	.	.	.	.	.	16AJk	こ
.	.	.	.	.	.	.	.	.	4B	と
.	4BB	.	4A	.	4f#	.	4dd	.	.	.
.	.	.	.	.	.	.	.	.	16G	な
.	4AA#X	.	4c#	.	4a#X	.	4ee	.	8GL	ぜ
.	.	.	.	.	.	.	.	.	16BL	だ
.	.	.	.	.	.	.	.	.	[16AJJ	ろう
=12	=12	=12	=12	=12	=12	=12	=12	=12	=12	=12
1r	2GG	.	2d	.	2b	.	2ff#	.	8AL]	.
.	.	.	.	.	.	.	.	.	8.DJ	か
.	.	.	.	.	.	.	.	.	4r	.
.	2D	.	2d	.	2a	.	2dd	.	.	.
.	.	.	.	.	.	.	.	.	8r	.
.	.	.	.	.	.	.	.	.	16D	な
.	.	.	.	.	.	.	.	.	8DL	み
.	.	.	.	.	.	.	.	.	16F#L	だ
.	.	.	.	.	.	.	.	.	16F#JJ	が
=13	=13	=13	=13	=13	=13	=13	=13	=13	=13	=13
1r	4EE	.	4d	.	4b	.	4ee	.	8.GL	.
.	.	.	.	.	.	.	.	.	16F#Jk	で
.	4AA	.	4c#	.	4a	.	4cc#	.	8EL	る
.	.	.	.	.	.	.	.	.	16DJk	こ
.	.	.	.	.	.	.	.	.	4D	と
.	4D	.	8A	.	2a	.	2dd	.	.	.
.	.	.	16r	.	.	.	.	.	.	.
.	.	.	16F#	.	.	.	.	.	16A	き
.	8r	.	16dLL	.	.	.	.	.	16f#LL	み
.	.	.	16e	.	.	.	.	.	16g	の
.	8C#	.	16d	.	.	.	.	.	16f#	め
.	.	.	[16BJJ	.	.	.	.	.	[16dJJ	が
=14	=14	=14	=14	=14	=14	=14	=14	=14	=14	=14
*^	*	*	*	*	*	*	*	*	*	*
8Raa/L	4Rf\	2BB	.	8B]	.	2b	.	2dd	.	8d]	.
8Rgg/	.	.	.	16r	.	.	.	.	.	16r	.
.	.	.	.	16F#	.	.	.	.	.	16A	つ
8Rcc/	8Rf\	.	.	16dLL	.	.	.	.	.	16f#LL	ら
.	.	.	.	16e	.	.	.	.	.	16g	ぬ
8Rgg/J	16r	.	.	16d	.	.	.	.	.	16f#	い
.	16Rf\	.	.	[16BJJ	.	.	.	.	.	[16eJJ	た
8Rgg/L	8Rf\L	2AA	.	8B]	.	2a	.	2cc#	.	8e]	.
8Rgg/	8Rf\J	.	.	16r	.	.	.	.	.	16r	.
.	.	.	.	16B	.	.	.	.	.	16d	ぼ
8Rcc/	4Rf\	.	.	16f#LL	.	.	.	.	.	16aLL	く
.	.	.	.	16g	.	.	.	.	.	16b	の
8Rgg/J	.	.	.	16f#	.	.	.	.	.	16a	む
.	.	.	.	[16BJJ	.	.	.	.	.	[16dJJ	ね
=15	=15	=15	=15	=15	=15	=15	=15	=15	=15	=15	=15
8Rgg/L	4Rf\	2GG	.	8BL]	.	4g	.	4b	.	8dL]	.
8Rgg/	.	.	.	16BL	.	.	.	.	.	16dL	を
.	.	.	.	16BJJ	.	.	.	.	.	16dJJ	ま
8Rcc/	8Rf\	.	.	8c#L	.	4a	.	4cc#	.	8eL	っ
8Rgg/J	16r	.	.	16f#L	.	.	.	.	.	16aL	す
.	16Rf\	.	.	[16dJJ	.	.	.	.	.	[16f#JJ	ぐ
8Rgg/L	8Rf\L	4DD	.	2d]	.	2a	.	2dd	.	8f#]	.
8Rgg/	8Rf\J	.	.	.	.	.	.	.	.	16r	.
.	.	.	.	.	.	.	.	.	.	16A	そ
8Rcc/	4Rf\	4AA	.	.	.	.	.	.	.	16f#LL	の
.	.	.	.	.	.	.	.	.	.	16g	ひ
8Rgg/J	.	.	.	.	.	.	.	.	.	16f#	か
.	.	.	.	.	.	.	.	.	.	[16dJJ	.
=16	=16	=16	=16	=16	=16	=16	=16	=16	=16	=16	=16
8Rgg/L	4Rf\	2BB	.	2B	.	2f#	.	2dd	.	8d]	.
8Rgg/	.	.	.	.	.	.	.	.	.	16r	.
.	.	.	.	.	.	.	.	.	.	16A	な
8Rcc/	8Rf\	.	.	.	.	.	.	.	.	16f#LL	に
.	.	.	.	.	.	.	.	.	.	16g	も
8Rgg/J	16r	.	.	.	.	.	.	.	.	16f#	か
.	16Rf\	.	.	.	.	.	.	.	.	[16eJJ	も
8Rgg/L	8Rf\L	2AA	.	2A	.	2e	.	2cc#	.	8e]	.
8Rgg/	8Rf\J	.	.	.	.	.	.	.	.	16r	.
.	.	.	.	.	.	.	.	.	.	16d	か
8Rcc/	4Rf\	.	.	.	.	.	.	.	.	16c#LL	わ
.	.	.	.	.	.	.	.	.	.	16d	り
8Rgg/J	.	.	.	.	.	.	.	.	.	16c#	は
.	.	.	.	.	.	.	.	.	.	16AJJ	て
=17	=17	=17	=17	=17	=17	=17	=17	=17	=17	=17	=17
8Rgg/L	4Rf\	4GG	.	4G	.	4b	.	4dd	.	8BL	た
8Rgg/	.	.	.	.	.	.	.	.	.	16dL	き
.	.	.	.	.	.	.	.	.	.	[16c#JJ	が
8Rcc/	8Rf\	4AA	.	4A	.	4cc#	.	4ee	.	8c#L]	.
8Rgg/J	16r	.	.	.	.	.	.	.	.	16dL	し
.	16Rf\	.	.	.	.	.	.	.	.	[16dJJ	た
8Rgg/L	8Rf\L	4D	.	8F#	.	2a	.	2dd	.	8d]	.
8Rcc/J	8Rf\J	.	.	16r	.	.	.	.	.	16r	.
.	.	.	.	16F#	.	.	.	.	.	16A	か
16.Rcc/LL	32Rff\KLL	8DL	.	16dLL	.	.	.	.	.	16f#LL	ぜ
.	16Rff\	.	.	.	.	.	.	.	.	.	.
.	.	.	.	16e	.	.	.	.	.	16g	に
16.Rcc/	32Rff\K	.	.	.	.	.	.	.	.	.	.
.	16Ree\	8C#J	.	16d	.	.	.	.	.	16f#	と
16Rcc/JJ	16Rdd\JJ	.	.	[16BJJ	.	.	.	.	.	[16dJJ	ば
=18	=18	=18	=18	=18	=18	=18	=18	=18	=18	=18	=18
8Raa/L	4Rf\	2BB	.	8B]	.	2b	.	2dd	.	8d]	.
8Rgg/	.	.	.	16r	.	.	.	.	.	16r	.
.	.	.	.	16F#	.	.	.	.	.	16A	さ
8Rcc/	8Rf\	.	.	16dLL	.	.	.	.	.	16f#LL	れ
.	.	.	.	16e	.	.	.	.	.	16g	そ
8Rgg/J	16r	.	.	16d	.	.	.	.	.	16f#	う
.	16Rf\	.	.	[16BJJ	.	.	.	.	.	[16eJJ	な
8Rgg/L	8Rf\L	2FF#	.	8B]	.	4.a	.	4.cc#	.	8e]	.
8Rgg/	8Rf\J	.	.	16r	.	.	.	.	.	16r	.
.	.	.	.	16B	.	.	.	.	.	16d	ふ
8Rcc/	4Rf\	.	.	16f#LL	.	.	.	.	.	16aLL	か
.	.	.	.	16g	.	.	.	.	.	16b	い
8Rgg/J	.	.	.	16f#	.	16r	.	16r	.	16a	は
.	.	.	.	[16BJJ	.	[16g	.	[16b	.	[16dJJ	る
=19	=19	=19	=19	=19	=19	=19	=19	=19	=19	=19	=19
8Rgg/L	4Rf\	4GG	.	8BL]	.	8gL]	.	8bL]	.	8dL]	.
8Rgg/	.	.	.	16GL	.	16gL	.	16bL	.	16dL	の
.	.	.	.	16GJJ	.	16gJJ	.	16bJJ	.	16dJJ	す
8Rcc/	8Rf\	4AA	.	8AL	.	8aL	.	8cc#L	.	8eL	み
8Rgg/J	16r	.	.	16AL	.	16ddL	.	16ff#L	.	16aL	で
.	16Rf\	.	.	[16AJJ	.	[16aJJ	.	[16ddJJ	.	[16f#JJ	.
8Rgg/L	8Rf\L	2D	.	4.A]	.	4.a]	.	4.dd]	.	8f#]	.
8Rgg/	8Rf\J	.	.	.	.	.	.	.	.	8r	.
8Rcc/	4Rf\	.	.	.	.	.	.	.	.	8r	.
8Rgg/J	.	.	.	8r	.	8r	.	8r	.	16eLL	た
.	.	.	.	.	.	.	.	.	.	16f#JJ	い
=20	=20	=20	=20	=20	=20	=20	=20	=20	=20	=20	=20
8Rgg/L	4Rf\	2EE	.	2G	.	2e	.	[4b	.	8gL	く
8Rgg/	.	.	.	.	.	.	.	.	.	16f#L	つ
.	.	.	.	.	.	.	.	.	.	[16eJJ	な
8Rcc/	4Rf\	.	.	.	.	.	.	8bL]	.	8e]	.
8Rgg/J	.	.	.	.	.	.	.	8ddJ	.	16r	.
.	.	.	.	.	.	.	.	.	.	16e	く
8Rgg/L	8Rf\L	2FF#	.	2A	.	2f#	.	2cc#	.	8c#L	ら
8Rgg/	8Rf\J	.	.	.	.	.	.	.	.	16f#L	い
.	.	.	.	.	.	.	.	.	.	[16c#JJ	に
8Rcc/	4Rf\	.	.	.	.	.	.	.	.	8c#]	.
8Rgg/J	.	.	.	.	.	.	.	.	.	16r	.
.	.	.	.	.	.	.	.	.	.	16A	な
=21	=21	=21	=21	=21	=21	=21	=21	=21	=21	=21	=21
8Rgg/L	4Rf\	2GG	.	2G	.	2d	.	4dd	.	4B	に
8Rgg/	.	.	.	.	.	.	.	.	.	.	.
8Rcc/	8Rf\	.	.	.	.	.	.	4ee	.	8AL	げ
8Rgg/J	16r	.	.	.	.	.	.	.	.	16GL	な
.	16Rf\	.	.	.	.	.	.	.	.	[16AJJ	く
8Rgg/L	8Rf\L	4FF#	.	4A	.	4e	.	4cc#	.	4A]	.
8Rcc/J	8Rf\J	.	.	.	.	.	.	.	.	.	.
16.Rcc/LL	32Rff\KLL	8r	.	8r	.	8r	.	8r	.	8r	.
.	16Rff\	.	.	.	.	.	.	.	.	.	.
16.Rcc/	32Rff\K	.	.	.	.	.	.	.	.	.	.
.	16Ree\	8FF#	.	8F#	.	8a	.	8cc#	.	8A	そ
16Rcc/JJ	16Rdd\JJ	.	.	.	.	.	.	.	.	.	.
*v	*v	*	*	*	*	*	*	*	*	*	*
=22	=22	=22	=22	=22	=22	=22	=22	=22	=22	=22
4Raa/	4EE	.	4B	.	4g	.	4dd	.	4B	ば
4r	8.AAL	.	8.AL	.	8.aL	.	8.ff#L	.	8.AL	に
.	[16DDJk	.	[16AJk	.	[16f#Jk	.	[16ddJk	.	[16dJk	　いて
2r	2DD]	.	2A]	.	2f#]	.	2dd]	.	2d]	.
=23	=23	=23	=23	=23	=23	=23	=23	=23	=23	=23
1r	4G	.	4d	.	4b	.	8r	.	1r	.
.	.	.	.	.	.	.	8dd	.	.	.
.	4F#	.	4d	.	4a	.	8r	.	.	.
.	.	.	.	.	.	.	8dd	.	.	.
.	4E	.	4B	.	4g	.	8r	.	.	.
.	.	.	.	.	.	.	8b	.	.	.
.	4D	.	4A	.	4f#	.	8r	.	.	.
.	.	.	.	.	.	.	8a	.	.	.
=24	=24	=24	=24	=24	=24	=24	=24	=24	=24	=24
1r	4Cn	.	4e	.	4g	.	8r	.	2r	.
.	.	.	.	.	.	.	8g	.	.	.
.	4BB	.	4d	.	4f#	.	8r	.	.	.
.	.	.	.	.	.	.	8g	.	.	.
.	4.AA	.	2d	.	2f#	.	2a	.	8.r	.
.	.	.	.	.	.	.	.	.	16AA	ま
.	.	.	.	.	.	.	.	.	8F#L	ち
.	8GG	.	.	.	.	.	.	.	16EL	が
.	.	.	.	.	.	.	.	.	16EJJ	い
=25	=25	=25	=25	=25	=25	=25	=25	=25	=25	=25
1r	8DL	.	4r	.	4r	.	4r	.	8.DL	.
.	8DJ	.	.	.	.	.	.	.	.	.
.	.	.	.	.	.	.	.	.	16DJk	だ
.	8.DL	.	8d	.	8f#	.	8a	.	8F#L	ら
.	.	.	8r	.	8r	.	8r	.	16AL	け
.	16AAJk	.	.	.	.	.	.	.	16AJJ	の
.	8GGL	.	4r	.	4r	.	4r	.	8.BL	.
.	8GGJ	.	.	.	.	.	.	.	.	.
.	.	.	.	.	.	.	.	.	16BJk	さ
.	8.GGL	.	8d	.	8g	.	8b	.	8c#L	さ
.	.	.	8r	.	8r	.	8r	.	16BL	い
.	16GGJk	.	.	.	.	.	.	.	16BJJ	な
=26	=26	=26	=26	=26	=26	=26	=26	=26	=26	=26
1r	8FF#L	.	4r	.	4r	.	4r	.	8.A#XL	.
.	8FF#J	.	.	.	.	.	.	.	.	.
.	.	.	.	.	.	.	.	.	16A#Jk	す
.	8.FF#L	.	8A#X	.	8f#	.	8cc#	.	8BL	き
.	.	.	8r	.	8r	.	8r	.	16c#L	ま
.	16FF#Jk	.	.	.	.	.	.	.	16c#JJ	で
.	8BBL	.	4r	.	4r	.	4r	.	8.dL	.
.	8AA	.	.	.	.	.	.	.	.	.
.	.	.	.	.	.	.	.	.	16dJk	く
.	8FF#	.	8B	.	8f#	.	8dd	.	8c#L	だ
.	8DDJ	.	8r	.	8r	.	8r	.	16AnL	ら
.	.	.	.	.	.	.	.	.	[16BJJ	な
=27	=27	=27	=27	=27	=27	=27	=27	=27	=27	=27
1r	8EEL	.	4r	.	4r	.	4r	.	8.BL]	い
.	8EEJ	.	.	.	.	.	.	.	.	.
.	.	.	.	.	.	.	.	.	16BJk	は
.	8.EEL	.	8e	.	8g	.	8dd	.	8AL	な
.	.	.	8r	.	8r	.	8r	.	16F#Jk	し
.	16EEJk	.	.	.	.	.	.	.	4G	を
.	8BBL	.	4r	.	4r	.	4r	.	.	.
.	8BBJ	.	.	.	.	.	.	.	.	.
.	.	.	.	.	.	.	.	.	16BB	く
.	8.BBL	.	8d	.	8f#	.	8dd	.	8GL	た
.	.	.	8r	.	8r	.	8r	.	16F#L	ば
.	16BBJk	.	.	.	.	.	.	.	16F#JJ	る
=28	=28	=28	=28	=28	=28	=28	=28	=28	=28	=28
1r	8EEL	.	4G	.	4e	.	4b	.	8.EL	.
.	8EE	.	.	.	.	.	.	.	.	.
.	.	.	.	.	.	.	.	.	16AAJk	ま
.	8GG#X	.	4B	.	4g#X	.	4cc#	.	4AA	で
.	8GG#J	.	.	.	.	.	.	.	.	.
.	8AAL	.	4c#	.	4a	.	4ee	.	8r	.
.	8AA	.	.	.	.	.	.	.	16r	.
.	.	.	.	.	.	.	.	.	16AA	た
.	8AA	.	4A	.	4f#	.	4dd	.	8F#L	だ
.	8AAJ	.	.	.	.	.	.	.	16EL	し
.	.	.	.	.	.	.	.	.	16EJJ	く
=29	=29	=29	=29	=29	=29	=29	=29	=29	=29	=29
1r	8DL	.	4r	.	4r	.	4r	.	8.DL	.
.	8DJ	.	.	.	.	.	.	.	.	.
.	.	.	.	.	.	.	.	.	16DJk	あ
.	8.DL	.	8d	.	8f#	.	8a	.	8F#L	り
.	.	.	8r	.	8r	.	8r	.	16AL	た
.	16AAJk	.	.	.	.	.	.	.	16AJJ	い
.	8GGL	.	4r	.	4r	.	4r	.	8.BL	.
.	8GGJ	.	.	.	.	.	.	.	.	.
.	.	.	.	.	.	.	.	.	16BJk	あ
.	8.GGL	.	8d	.	8g	.	8b	.	8c#L	れ
.	.	.	8r	.	8r	.	8r	.	16BL	な
.	16GGJk	.	.	.	.	.	.	.	16BJJ	い
=30	=30	=30	=30	=30	=30	=30	=30	=30	=30	=30
1r	8.FF#L	.	1r	.	1r	.	1r	.	8.A#XL	.
.	16AA#XJk	さ	.	.	.	.	.	.	16A#Jk	さ
.	8GL	み	.	.	.	.	.	.	8gL	み
.	16AL	し	.	.	.	.	.	.	16aL	し
.	16F#JJ	さ	.	.	.	.	.	.	16f#JJ	さ
.	16DKL	.	.	.	.	.	.	.	16dKL	.
.	[8.DJ	が	.	.	.	.	.	.	[8.dJ	が
.	4D]	.	.	.	.	.	.	.	4d]	.
=31	=31	=31	=31	=31	=31	=31	=31	=31	=31	=31
1r	4EE	.	2d	.	2g	.	2b	.	8r	.
.	.	.	.	.	.	.	.	.	16BLL	な
.	.	.	.	.	.	.	.	.	16c#JJ	に
.	4EE	.	.	.	.	.	.	.	8.dL	を
.	.	.	.	.	.	.	.	.	16BJk	は
.	4AA	.	2e	.	2a	.	2cc#	.	8.AL	ぐ
.	.	.	.	.	.	.	.	.	16F#Jk	く
.	4AA	.	.	.	.	.	.	.	8F#L	ん
.	.	.	.	.	.	.	.	.	16EL	だ
.	.	.	.	.	.	.	.	.	16EJJ	で
=32	=32	=32	=32	=32	=32	=32	=32	=32	=32	=32
1r	1D	.	1A	.	1f#	.	2dd	.	2D	しょう
.	.	.	.	.	.	.	2cc#	.	8.r	.
.	.	.	.	.	.	.	.	.	16F#	ひ
.	.	.	.	.	.	.	.	.	8F#L	と
.	.	.	.	.	.	.	.	.	16F#L	つ
.	.	.	.	.	.	.	.	.	[16GJJ	づ
=33	=33	=33	=33	=33	=33	=33	=33	=33	=33	=33
1r	4GG	.	8.r	.	2g	.	2b	.	8G]	.
.	.	.	.	.	.	.	.	.	4.B	つ
.	.	.	16F#	ひ	.	.	.	.	.	.
.	4GG	.	8F#L	と	.	.	.	.	.	.
.	.	.	16F#L	つ	.	.	.	.	.	.
.	.	.	[16GJJ	づ	.	.	.	.	.	.
.	4DD	.	8G]	.	4.f#	.	4.a	.	8.r	.
.	.	.	4B	つ	.	.	.	.	.	.
.	.	.	.	.	.	.	.	.	16A	さ
.	4DD	.	.	.	.	.	.	.	16ALL	が
.	.	.	.	.	.	.	.	.	16A	し
.	.	.	16F#LL	あ	16c#LL	あ	16aLL	あ	16A	あ
.	.	.	[16AJJ	て	[16eJJ	て	[16cc#JJ	て	[16c#JJ	て
=34	=34	=34	=34	=34	=34	=34	=34	=34	=34	=34
1r	2AA	.	8AL]	.	8eL]	.	8cc#L]	.	8c#L]	.
.	.	.	8BJ	て	8f#J	て	8ddJ	て	8dJ	て
.	.	.	8F#L	い	8c#L	い	8aL	い	8AL	い
.	.	.	16F#L	こう	16c#L	こう	16aL	こう	16AL	こう
.	.	.	[16GJJ	.	[16dJJ	.	[16bJJ	.	[16BJJ	.
.	4BB	.	2G]	.	2d]	.	2b]	.	8B]	.
.	.	.	.	.	.	.	.	.	16r	.
.	.	.	.	.	.	.	.	.	16G	お
.	4AA#X	.	.	.	.	.	.	.	8GL	き
.	.	.	.	.	.	.	.	.	16BL	が
.	.	.	.	.	.	.	.	.	[16AJJ	け
=35	=35	=35	=35	=35	=35	=35	=35	=35	=35	=35
1r	2GG	.	2G	.	2d	.	2b	.	8AL]	.
.	.	.	.	.	.	.	.	.	8.DJ	の
.	.	.	.	.	.	.	.	.	4r	.
.	2DD	.	2A	.	2f#	.	2dd	.	.	.
.	.	.	.	.	.	.	.	.	8r	.
.	.	.	.	.	.	.	.	.	16D	こ
.	.	.	.	.	.	.	.	.	8DL	ど
.	.	.	.	.	.	.	.	.	16F#L	も
.	.	.	.	.	.	.	.	.	16F#JJ	み
=36	=36	=36	=36	=36	=36	=36	=36	=36	=36	=36
1r	4EE	.	4B	.	4g	.	4dd	.	8.GL	た
.	.	.	.	.	.	.	.	.	16F#Jk	.
.	4AA	.	4A	.	4e	.	4cc#	.	8EL	い
.	.	.	.	.	.	.	.	.	16DJk	に
.	.	.	.	.	.	.	.	.	4D	.
.	4BB	.	2F#	.	8d	.	2b	.	.	.
.	.	.	.	.	16r	.	.	.	.	.
.	.	.	.	.	16d	.	.	.	16A	き
.	8r	.	.	.	16aLL	.	.	.	16f#LL	み
.	.	.	.	.	16b	.	.	.	16g	の
.	8C#	.	.	.	16a	.	.	.	16f#	て
.	.	.	.	.	[16f#JJ	.	.	.	[16dJJ	が
=37	=37	=37	=37	=37	=37	=37	=37	=37	=37	=37
*^	*	*	*	*	*	*	*	*	*	*
8Raa/L	4Rf\	4.BB	.	2B	.	8f#]	.	2dd	.	8d]	.
8Rgg/	.	.	.	.	.	16r	.	.	.	16r	.
.	.	.	.	.	.	16d	.	.	.	16A	ふ
8Rcc/	8Rf\	.	.	.	.	16aLL	.	.	.	16f#LL	れ
.	.	.	.	.	.	16b	.	.	.	16g	て
8Rgg/J	16r	8FF#	.	.	.	16a	.	.	.	16f#	い
.	16Rf\	.	.	.	.	[16aJJ	.	.	.	[16eJJ	た
8Rgg/L	8Rf\L	4.AA	.	2c#	.	8a]	.	2ee	.	8e]	.
8Rgg/J	8Rf\J	.	.	.	.	16r	.	.	.	16r	.
.	.	.	.	.	.	16f#	.	.	.	16d	ゆ
8Rcc/L	[8.Rf\L	.	.	.	.	16ddLL	.	.	.	16aLL	び
.	.	.	.	.	.	16ee	.	.	.	16b	を
[16Rgg/L	.	8FF#	.	.	.	16dd	.	.	.	16a	か
16Rgg/JJ]	16Rf\Jk]	.	.	.	.	[16gJJ	.	.	.	[16dJJ	さ
=38	=38	=38	=38	=38	=38	=38	=38	=38	=38	=38	=38
8Rgg/L	4Rf\	4.GG	.	4B	.	8gL]	.	4dd	.	8dL]	.
8Rgg/	.	.	.	.	.	16gL	.	.	.	16dL	ね
.	.	.	.	.	.	16gJJ	.	.	.	16dJJ	あ
8Rcc/	8Rf\	.	.	4c#	.	8aL	.	4ee	.	8eL	わ
8Rgg/J	16r	8GG	.	.	.	16ddL	.	.	.	16aJk	せ
.	16Rf\	.	.	.	.	[16aJJ	.	.	.	4f#	.
8Rgg/L	8Rf\L	4DD	.	2d	.	2a]	.	2ff#	.	.	.
8Rgg/J	8Rf\J	.	.	.	.	.	.	.	.	.	.
.	.	.	.	.	.	.	.	.	.	16A	ま
8Rcc/L	[8.Rf\L	4AA	.	.	.	.	.	.	.	16f#LL	ち
.	.	.	.	.	.	.	.	.	.	16g	が
[16Rgg/L	.	.	.	.	.	.	.	.	.	16f#	い
16Rgg/JJ]	16Rf\Jk]	.	.	.	.	.	.	.	.	[16dJJ	か
=39	=39	=39	=39	=39	=39	=39	=39	=39	=39	=39	=39
8Rgg/L	4Rf\	4.BB	.	2d	.	2f#	.	2b	.	8d]	.
8Rgg/	.	.	.	.	.	.	.	.	.	16r	.
.	.	.	.	.	.	.	.	.	.	16A	せ
8Rcc/	8Rf\	.	.	.	.	.	.	.	.	16f#LL	い
.	.	.	.	.	.	.	.	.	.	16g	か
8Rgg/J	16r	8FF#	.	.	.	.	.	.	.	16f#	い
.	16Rf\	.	.	.	.	.	.	.	.	[16eJJ	か
8Rgg/L	8Rf\L	4.AA	.	2c#	.	2e	.	2a	.	8e]	.
8Rgg/J	8Rf\J	.	.	.	.	.	.	.	.	16r	.
.	.	.	.	.	.	.	.	.	.	16d	だ
8Rcc/L	[8.Rf\L	.	.	.	.	.	.	.	.	16c#LL	な
.	.	.	.	.	.	.	.	.	.	16d	ん
[16Rgg/L	.	8FF#	.	.	.	.	.	.	.	16c#	て
16Rgg/JJ]	16Rf\Jk]	.	.	.	.	.	.	.	.	16AJJ	ど
=40	=40	=40	=40	=40	=40	=40	=40	=40	=40	=40	=40
8Rgg/L	4Rf\	4GG	.	4B	.	4g	.	4dd	.	8BL	う
8Rgg/	.	.	.	.	.	.	.	.	.	16dL	で
.	.	.	.	.	.	.	.	.	.	[16c#JJ	も
8Rcc/	8Rf\	4AA	.	4c#	.	4a	.	4ee	.	8c#L]	よ
8Rgg/J	16r	.	.	.	.	.	.	.	.	16dL	か
.	16Rf\	.	.	.	.	.	.	.	.	[16dJJ	った
8Rgg/L	8Rf\L	4D	.	8d	.	8dd	.	8ff#	.	8d]	.
8Rcc/J	8Rf\J	.	.	16r	.	16r	.	16r	.	16r	.
.	.	.	.	16F#	.	16d	.	16a	.	16A	ま
16.Rcc/LL	32Rff\KLL	8DL	.	16ALL	.	16aLL	.	16ddLL	.	16f#LL	た
.	16Rff\	.	.	.	.	.	.	.	.	.	.
.	.	.	.	16A	.	16b	.	16ee	.	16g	た
16.Rcc/	32Rff\K	.	.	.	.	.	.	.	.	.	.
.	16Ree\	8C#J	.	16A	.	16a	.	16dd	.	16f#	く
16Rcc/JJ	16Rdd\JJ	.	.	[16GJJ	.	[16gJJ	.	[16bJJ	.	[16dJJ	ま
=41	=41	=41	=41	=41	=41	=41	=41	=41	=41	=41	=41
8Raa/L	4Rf\	4.BB	.	8G]	.	8g]	.	8b]	.	8d]	.
8Rgg/	.	.	.	16r	.	16r	.	16r	.	16r	.
.	.	.	.	16F#	.	16d	.	16a	.	16A	に
8Rcc/	8Rf\	.	.	16ALL	.	16aLL	.	16ddLL	.	16f#LL	おっ
.	.	.	.	16A	.	16b	.	16ee	.	16g	こ
8Rgg/J	16r	8BB	.	16A	.	16a	.	16dd	.	16f#	ち
.	16Rf\	.	.	[16AJJ	.	[16aJJ	.	[16cc#JJ	.	[16eJJ	た
8Rgg/L	8Rf\L	4.FF#	.	8A]	.	8a]	.	8cc#]	.	8e]	.
8Rgg/J	8Rf\J	.	.	16r	.	16r	.	16r	.	16r	.
.	.	.	.	16F#	.	16f#	.	16b	.	16d	あ
8Rcc/L	[8.Rf\L	.	.	16c#LL	.	16ddLL	.	16ff#LL	.	16aLL	わ
.	.	.	.	16d	.	16ee	.	16gg	.	16b	い
[16Rgg/L	.	8FF#	.	16c#	.	16dd	.	16ff#	.	16a	も
16Rgg/JJ]	16Rf\Jk]	.	.	[16BJJ	.	[16gJJ	.	[16bJJ	.	[16dJJ	や
=42	=42	=42	=42	=42	=42	=42	=42	=42	=42	=42	=42
8Rgg/L	4Rf\	4GG	.	8BL]	.	8gL]	.	8bL]	.	8dL]	.
8Rgg/	.	.	.	16GL	.	16gL	.	16bL	.	16dL	の
.	.	.	.	16GJJ	.	16gJJ	.	16bJJ	.	16dJJ	な
8Rcc/	8Rf\	4AA	.	8AL	.	8aL	.	8cc#L	.	8eL	か
8Rgg/J	16r	.	.	16AL	.	16ddL	.	16ff#L	.	16aL	で
.	16Rf\	.	.	[16AJJ	.	[16aJJ	.	[16ddJJ	.	[16f#JJ	.
8Rgg/L	8Rf\L	4.D	.	4.A]	.	4.a]	.	4.dd]	.	4f#]	.
8Rgg/J	8Rf\J	.	.	.	.	.	.	.	.	.	.
8Rcc/L	[8.Rf\L	.	.	.	.	.	.	.	.	8r	.
[16Rgg/L	.	8C#	.	8r	.	8r	.	8r	.	16eLL	き
16Rgg/JJ]	16Rf\Jk]	.	.	.	.	.	.	.	.	16f#JJ	み
=43	=43	=43	=43	=43	=43	=43	=43	=43	=43	=43	=43
8Rgg/L	4Rf\	2EE	.	2G	.	2e	.	2b	wo	8gL	じゃ
8Rgg/	.	.	.	.	.	.	.	.	.	16f#L	な
.	.	.	.	.	.	.	.	.	.	[16eJJ	きゃ
8Rcc/	4Rf\	.	.	.	.	.	.	.	.	8e]	.
8Rgg/J	.	.	.	.	.	.	.	.	.	16r	.
.	.	.	.	.	.	.	.	.	.	16e	いけ
8Rgg/L	8Rf\L	2FF#	.	2A	.	2f#	.	2cc#	.	8c#L	な
8Rgg/J	8Rf\J	.	.	.	.	.	.	.	.	16f#L	い
.	.	.	.	.	.	.	.	.	.	[16c#JJ	と
8Rcc/L	[8.Rf\L	.	.	.	.	.	.	.	.	8c#]	.
[16Rgg/L	.	.	.	.	.	.	.	.	.	16r	.
16Rgg/JJ]	16Rf\Jk]	.	.	.	.	.	.	.	.	16A	た
=44	=44	=44	=44	=44	=44	=44	=44	=44	=44	=44	=44
8Rgg/L	4Rf\	2GG	.	2d	.	2g	.	4.ff#	.	4B	だ
8Rgg/	.	.	.	.	.	.	.	.	.	.	.
8Rcc/	8Rf\	.	.	.	.	.	.	.	.	8AL	つ
8Rgg/J	16r	.	.	.	.	.	.	8gg	.	16GL	よ
.	16Rf\	.	.	.	.	.	.	.	.	[16AJJ	く
8Rgg/L	8Rf\L	4FF#	.	4e	.	4a	.	8ff#L	.	8A]	.
8Rcc/J	8Rf\J	.	.	.	.	.	.	8ee	.	8r	.
16.Rcc/LL	32Rff\KLL	8r	.	8r	.	8r	.	8dd	.	8r	.
.	16Rff\	.	.	.	.	.	.	.	.	.	.
16.Rcc/	32Rff\K	.	.	.	.	.	.	.	.	.	.
.	16Ree\	8FF#	.	8F#	.	8a	.	8cc#J	.	8G	お
16Rcc/JJ	16Rdd\JJ	.	.	.	.	.	.	.	.	.	.
*v	*v	*	*	*	*	*	*	*	*	*	*
=45	=45	=45	=45	=45	=45	=45	=45	=45	=45	=45
4Raa/	4EE	.	4B	.	4g	.	4dd	.	4B	もう
*^	*	*	*	*	*	*	*	*	*	*
16r	4r	8.AAL	.	8.AL	.	8.aL	.	8.ff#L	.	8.AL	だ
4r	.	.	.	.	.	.	.	.	.	.	.
.	.	[16DDJk	.	[16AJk	.	[16f#Jk	.	[16ddJk	.	(16dJk	け
.	2r	8DD]	.	2A]	.	2f#]	.	2dd]	.	2d)	.
8.r	.	.	.	.	.	.	.	.	.	.	.
.	.	16r	.	.	.	.	.	.	.	.	.
.	.	16AA	き	.	.	.	.	.	.	.	.
4r	.	16F#LL	み	.	.	.	.	.	.	.	.
.	.	16G	の	.	.	.	.	.	.	.	.
.	.	16F#	め	.	.	.	.	.	.	.	.
.	.	[16DJJ	が	.	.	.	.	.	.	.	.
*v	*v	*	*	*	*	*	*	*	*	*	*
=46	=46	=46	=46	=46	=46	=46	=46	=46	=46	=46
1r	8D]	.	4d	.	4f#	.	4b	fon	1r	.
.	16r	.	.	.	.	.	.	.	.	.
.	16AA	つ	.	.	.	.	.	.	.	.
.	16F#LL	ら	4d	.	4a	.	8r	.	.	.
.	16G	ぬ	.	.	.	.	.	.	.	.
.	16F#	い	.	.	.	.	8b	.	.	.
.	[16EJJ	た	.	.	.	.	.	.	.	.
.	8E]	.	4c#	.	4e	.	4a	.	.	.
.	16r	.	.	.	.	.	.	.	.	.
.	16D	ぼ	.	.	.	.	.	.	.	.
.	16ALL	く	4B	.	4g	.	8r	.	.	.
.	16B	の	.	.	.	.	.	.	.	.
.	16A	む	.	.	.	.	8b	.	.	.
.	[16DJJ	ね	.	.	.	.	.	.	.	.
=47	=47	=47	=47	=47	=47	=47	=47	=47	=47	=47
1r	8DL]	.	4B	.	4d	.	4g	.	1r	.
.	16DL	を	.	.	.	.	.	.	.	.
.	[16EJJ	まっ	.	.	.	.	.	.	.	.
.	8EL]	.	4B	.	4g	.	8r	.	.	.
.	16AJk	す	.	.	.	.	8a	.	.	.
.	4F#	ぐ	.	.	.	.	.	.	.	.
.	.	.	4A	.	4f#	.	4dd	.	.	.
.	16AA	そ	.	.	.	.	.	.	.	.
.	16F#LL	の	4A	.	4f#	.	4dd	.	.	.
.	16G	ひ	.	.	.	.	.	.	.	.
.	16F#	か	.	.	.	.	.	.	.	.
.	[16DJJ	ら	.	.	.	.	.	.	.	.
=48	=48	=48	=48	=48	=48	=48	=48	=48	=48	=48
1r	8D]	.	4d	.	4f#	.	4b	.	2.r	.
.	16r	.	.	.	.	.	.	.	.	.
.	16AA	な	.	.	.	.	.	.	.	.
.	16F#LL	に	4d	.	4a	.	8r	.	.	.
.	16G	も	.	.	.	.	.	.	.	.
.	16F#	か	.	.	.	.	8b	.	.	.
.	[16EJJ	も	.	.	.	.	.	.	.	.
.	8E]	.	4c#	.	4e	.	4a	.	.	.
.	16r	.	.	.	.	.	.	.	.	.
.	16D	か	.	.	.	.	.	.	.	.
.	16C#LL	わ	4d	.	4g	.	8r	.	8.r	.
.	16D	り	.	.	.	.	.	.	.	.
.	16C#	は	.	.	.	.	8a	.	.	.
.	[16AAJJ	て	.	.	.	.	.	.	[16A	て
=49	=49	=49	=49	=49	=49	=49	=49	=49	=49	=49
1r	8AAL]	.	1r	.	1r	.	1r	.	8AL]	.
.	16DL	た	.	.	.	.	.	.	16dL	た
.	[16C#JJ	き	.	.	.	.	.	.	[16c#JJ	き
.	16C#LL]	.	.	.	.	.	.	.	16c#LL]	.
.	16D	が	.	.	.	.	.	.	16d	が
.	16D	し	.	.	.	.	.	.	16d	し
.	[16DJJ	た	.	.	.	.	.	.	[16dJJ	た
.	8D]	.	.	.	.	.	.	.	8d]	.
.	8r	.	.	.	.	.	.	.	16r	.
.	.	.	.	.	.	.	.	.	16A	か
.	4BB	.	.	.	.	.	.	.	16f#LL	ぜ
.	.	.	.	.	.	.	.	.	16g	に
.	.	.	.	.	.	.	.	.	16f#	と
.	.	.	.	.	.	.	.	.	[16dJJ	ば
=50	=50	=50	=50	=50	=50	=50	=50	=50	=50	=50
1r	2BB	.	1r	.	1r	.	1r	.	8d]	.
.	.	.	.	.	.	.	.	.	16r	.
.	.	.	.	.	.	.	.	.	16A	さ
.	.	.	.	.	.	.	.	.	16f#LL	れ
.	.	.	.	.	.	.	.	.	16g	そ
.	.	.	.	.	.	.	.	.	16f#	う
.	.	.	.	.	.	.	.	.	[16eJJ	な
.	2FF#	.	.	.	.	.	.	.	8e]	.
.	.	.	.	.	.	.	.	.	16r	.
.	.	.	.	.	.	.	.	.	16d	ふ
.	.	.	.	.	.	.	.	.	16aLL	か
.	.	.	.	.	.	.	.	.	16b	い
.	.	.	.	.	.	.	.	.	16a	は
.	.	.	.	.	.	.	.	.	[16dJJ	る
=51	=51	=51	=51	=51	=51	=51	=51	=51	=51	=51
1r	4GG	.	1r	.	1r	.	1r	.	8dL]	.
.	.	.	.	.	.	.	.	.	16dL	の
.	.	.	.	.	.	.	.	.	[16eJJ	す
.	4AA	.	.	.	.	.	.	.	8eL]	.
.	.	.	.	.	.	.	.	.	16aL	み
.	.	.	.	.	.	.	.	.	[16f#JJ	で
.	2D	.	.	.	.	.	.	.	4f#]	.
.	.	.	.	.	.	.	.	.	8r	.
.	.	.	.	.	.	.	.	.	16eLL	だ
.	.	.	.	.	.	.	.	.	16f#JJ	れ
=52	=52	=52	=52	=52	=52	=52	=52	=52	=52	=52
1r	8GGL	.	2G	.	2d	.	2b	wo	8gL	に
.	8GG	.	.	.	.	.	.	.	16f#L	も
.	.	.	.	.	.	.	.	.	[16eJJ	み
.	8GG	.	.	.	.	.	.	.	8.eL]	.
.	8GGJ	.	.	.	.	.	.	.	.	.
.	.	.	.	.	.	.	.	.	16dJk	せ
.	8FF#L	.	2A	.	2f#	.	2cc#	.	8c#	な
.	8FF#	.	.	.	.	.	.	.	4f#	い
.	8FF#	.	.	.	.	.	.	.	.	.
.	8FF#J	.	.	.	.	.	.	.	16c#LL	か
.	.	.	.	.	.	.	.	.	[16BJJ	お
=53	=53	=53	=53	=53	=53	=53	=53	=53	=53	=53
1r	8GGL	.	4B	.	4g	.	4dd	.	8BL]	.
.	8GG	.	.	.	.	.	.	.	16dL	を
.	.	.	.	.	.	.	.	.	[16eJJ	み
.	8AA	.	4c#	.	4a	.	4ee	.	16eLL]	.
.	.	.	.	.	.	.	.	.	16c#J	せ
.	8AAJ	.	.	.	.	.	.	.	[8dJ	て
.	16DLL	.	8.r	.	8.r	.	8.r	.	8d]	.
.	16AAJ	.	.	.	.	.	.	.	.	.
.	8DJ	.	.	.	.	.	.	.	16r	.
.	.	.	16F#	.	16d	.	16a	.	16A	き
.	8DL	.	16ALL	.	16aLL	.	16ddLL	.	16f#LL	み
.	.	.	16A	.	16b	.	16ee	.	16g	の
.	8C#J	.	16A	.	16a	.	16dd	.	16f#	て
.	.	.	[16GJJ	.	[16gJJ	.	[16bJJ	.	[16dJJ	が
=54	=54	=54	=54	=54	=54	=54	=54	=54	=54	=54
*^	*	*	*	*	*	*	*	*	*	*
8Raa/L	4Rf\	8BBL	.	8G]	.	8g]	.	8b]	.	8d]	.
8Rgg/	.	8BB	.	16r	.	16r	.	16r	.	16r	.
.	.	.	.	16F#	.	16d	.	16a	.	16A	ふ
8Rcc/	8Rf\	8BB	.	16ALL	.	16aLL	.	16ddLL	.	16f#LL	れ
.	.	.	.	16A	.	16b	.	16ee	.	16g	て
8Rgg/J	16r	8BBJ	.	16A	.	16a	.	16dd	.	16f#	い
.	16Rf\	.	.	[16AJJ	.	[16aJJ	.	[16cc#JJ	.	[16eJJ	た
8Rgg/L	8Rf\L	8AAL	.	8A]	.	8a]	.	8cc#]	.	8e]	.
8Rgg/J	8Rf\J	8AA	.	16r	.	16r	.	16r	.	16r	.
.	.	.	.	16F#	.	16f#	.	16b	.	16d	ゆ
8Rcc/L	[8.Rf\L	8AA	.	16c#LL	.	16ddLL	.	16ff#LL	.	16aLL	び
.	.	.	.	16d	.	16ee	.	16gg	.	16b	を
[16Rgg/L	.	8AAJ	.	16c#	.	16dd	.	16ff#	.	16a	か
16Rgg/JJ]	16Rf\Jk]	.	.	[16BJJ	.	[16bJJ	.	[16ddJJ	.	[16dJJ	さ
=55	=55	=55	=55	=55	=55	=55	=55	=55	=55	=55	=55
8Rgg/L	4Rf\	8GGL	.	8BL]	.	8bL]	.	8ddL]	.	8dL]	.
8Rgg/	.	8GGJ	.	16GL	.	16gL	.	16bL	.	16dL	ね
.	.	.	.	[16GJJ	.	[16aJJ	.	[16cc#JJ	.	[16eJJ	あ
8Rcc/	8Rf\	8GGL	.	8GL]	.	8aL]	.	8cc#L]	.	8eL]	.
8Rgg/J	16r	16GGL	.	16AL	.	16ddL	.	16ff#L	.	16aL	わ
.	16Rf\	16AAJJ	.	[16AJJ	.	[16aJJ	.	[16ddJJ	.	[16f#JJ	せ
8Rgg/L	8Rf\L	8DL	.	2A]	.	2a]	.	2dd]	.	8f#]	.
8Rgg/J	8Rf\J	8DJ	.	.	.	.	.	.	.	16r	.
.	.	.	.	.	.	.	.	.	.	16A	ま
8Rcc/L	[8.Rf\L	8DL	.	.	.	.	.	.	.	16f#LL	ち
.	.	.	.	.	.	.	.	.	.	16g	が
[16Rgg/L	.	16DL	.	.	.	.	.	.	.	16f#	い
16Rgg/JJ]	16Rf\Jk]	16C#JJ	.	.	.	.	.	.	.	[16dJJ	か
=56	=56	=56	=56	=56	=56	=56	=56	=56	=56	=56	=56
8Rgg/L	4Rf\	8BBL	.	2d	.	2f#	.	2b	ah	8d]	.
8Rgg/	.	8BB	.	.	.	.	.	.	.	16r	.
.	.	.	.	.	.	.	.	.	.	16A	せ
8Rcc/	8Rf\	8BB	.	.	.	.	.	.	.	16f#LL	い
.	.	.	.	.	.	.	.	.	.	16g	か
8Rgg/J	16r	8BBJ	.	.	.	.	.	.	.	16f#	い
.	16Rf\	.	.	.	.	.	.	.	.	[16eJJ	か
8Rgg/L	8Rf\L	8AAL	.	2c#	.	2e	.	2a	.	8e]	.
8Rgg/J	8Rf\J	8AA	.	.	.	.	.	.	.	16r	.
.	.	.	.	.	.	.	.	.	.	16d	だ
8Rcc/L	[8.Rf\L	8AA	.	.	.	.	.	.	.	16c#LL	な
.	.	.	.	.	.	.	.	.	.	16d	ん
[16Rgg/L	.	8AAJ	.	.	.	.	.	.	.	16c#	て
16Rgg/JJ]	16Rf\Jk]	.	.	.	.	.	.	.	.	16AJJ	ど
=57	=57	=57	=57	=57	=57	=57	=57	=57	=57	=57	=57
8Rgg/L	4Rf\	8GGL	.	4B	.	4g	.	4dd	.	8BL	う
8Rgg/	.	8GG	.	.	.	.	.	.	.	16dL	で
.	.	.	.	.	.	.	.	.	.	[16c#JJ	も
8Rcc/	8Rf\	8AA	.	4c#	.	4a	.	4ee	.	8c#L]	よ
8Rgg/J	16r	8AAJ	.	.	.	.	.	.	.	16dL	かった
.	16Rf\	.	.	.	.	.	.	.	.	[16dJJ	.
8Rgg/L	8Rf\L	16DLL	.	8d	.	4.dd	.	4.ff#	.	8d]	.
.	.	16AAJ	.	.	.	.	.	.	.	.	.
8Rcc/J	8Rf\J	8DJ	.	16r	.	.	.	.	.	16r	.
.	.	.	.	16F#	.	.	.	.	.	16A	ま
16.Rcc/LL	32Rff\KLL	8DL	.	16dLL	.	.	.	.	.	16f#LL	た
.	16Rff\	.	.	.	.	.	.	.	.	.	.
.	.	.	.	16e	.	.	.	.	.	16g	た
16.Rcc/	32Rff\K	.	.	.	.	.	.	.	.	.	.
.	16Ree\	16DL	.	16d	.	16r	.	16r	.	16f#	く
16Rcc/JJ	16Rdd\JJ	16C#JJ	.	[16BJJ	.	16f#	ま	16a	ま	[16dJJ	ま
=58	=58	=58	=58	=58	=58	=58	=58	=58	=58	=58	=58
8Raa/L	4Rf\	8BBL	.	8BL]	.	16gLL	た	16bLL	た	8dL]	.
.	.	.	.	.	.	16a	た	16cc#	た	.	.
8Rgg/	.	8BBJ	.	16F#L	.	16g	く	16b	く	16AL	に
.	.	.	.	[16dJJ	.	[16f#JJ	ま	[16aJJ	ま	[16f#JJ	おっ
8Rcc/	8Rf\	8BBL	.	16dLL]	.	8f#L]	.	8aL]	.	16f#LL]	.
.	.	.	.	16e	.	.	.	.	.	16g	こ
8Rgg/J	16r	16FF#L	.	16d	.	16f#L	に	16aL	に	16f#	ち
.	16Rf\	16GGJJ	.	[16c#JJ	.	[16gJJ	おっ	[16bJJ	おっ	[16eJJ	た
8Rgg/L	8Rf\L	8FF#L	.	8c#]	.	16gLL]	.	16bLL]	.	8e]	.
.	.	.	.	.	.	16a	こ	16cc#	こ	.	.
8Rgg/J	8Rf\J	8FF#J	.	16r	.	16g	ち	16b	ち	16r	.
.	.	.	.	16F#	.	[16f#JJ	た	[16aJJ	た	16d	あ
8Rcc/L	[8.Rf\L	8FF#L	.	16dLL	.	8f#L]	.	8aL]	.	16aLL	わ
.	.	.	.	16e	.	.	.	.	.	16b	い
[16Rgg/L	.	16FF#L	.	16d	.	16aL	.	16ff#L	.	16a	も
16Rgg/JJ]	16Rf\Jk]	16GGJJ	.	[16BJJ	.	[16f#JJ	.	[16ddJJ	.	[16dJJ	や
=59	=59	=59	=59	=59	=59	=59	=59	=59	=59	=59	=59
8Rgg/L	4Rf\	8GGL	.	8BL]	.	8f#L]	.	8ddL]	.	8dL]	.
8Rgg/	.	8GG	.	16BL	.	16gL	.	16ddL	.	16dL	の
.	.	.	.	16BJJ	.	16gJJ	.	16ddJJ	.	16dJJ	な
8Rcc/	8Rf\	8AA	.	8c#L	.	8aL	.	8eeL	.	8eL	.
8Rgg/J	16r	8AAJ	.	16f#L	.	16cc#L	.	16ff#L	.	16aL	か
.	16Rf\	.	.	[16dJJ	.	[16aJJ	.	[16ddJJ	.	[16f#JJ	で
8Rgg/L	8Rf\L	8DL	.	4.d]	.	4.a]	.	4.dd]	.	4f#]	.
8Rgg/J	8Rf\J	8DJ	.	.	.	.	.	.	.	.	.
8Rcc/L	[8.Rf\L	4D	.	.	.	.	.	.	.	8r	.
[16Rgg/L	.	.	.	8r	.	8r	.	8r	.	16eLL	き
16Rgg/JJ]	16Rf\Jk]	.	.	.	.	.	.	.	.	16f#JJ	み
=60	=60	=60	=60	=60	=60	=60	=60	=60	=60	=60	=60
8Rgg/L	4Rf\	8EEL	.	2G	.	2e	.	2b	wo	8gL	じゃ
8Rgg/	.	8EE	.	.	.	.	.	.	.	16f#L	な
.	.	.	.	.	.	.	.	.	.	[16eJJ	きゃ
8Rcc/	4Rf\	8EE	.	.	.	.	.	.	.	16eLL]	.
.	.	.	.	.	.	.	.	.	.	16dJ	い
8Rgg/J	.	8EEJ	.	.	.	.	.	.	.	8dJ	け
8Rgg/L	8Rf\L	8FF#L	.	2A	.	2f#	.	2cc#	.	8c#L	な
8Rgg/J	8Rf\J	8FF#	.	.	.	.	.	.	.	16f#L	い
.	.	.	.	.	.	.	.	.	.	[16c#JJ	と
8Rcc/L	[8.Rf\L	8FF#	.	.	.	.	.	.	.	8c#]	.
[16Rgg/L	.	8FF#J	.	.	.	.	.	.	.	16r	.
16Rgg/JJ]	16Rf\Jk]	.	.	.	.	.	.	.	.	16A	た
=61	=61	=61	=61	=61	=61	=61	=61	=61	=61	=61	=61
8Rgg/L	4Rf\	8GGL	.	2d	.	2g	.	4.ff#	.	4B	だ
8Rgg/	.	8GG	.	.	.	.	.	.	.	.	.
8Rcc/	8Rf\	8GG	.	.	.	.	.	.	.	8AL	つ
8Rgg/J	16r	8GGJ	.	.	.	.	.	8gg	.	16GL	よ
.	16Rf\	.	.	.	.	.	.	.	.	[16AJJ	く
8Rgg/L	8Rf\L	8FF#L	.	4e	.	4a	.	8ff#L	.	8A]	.
8Rcc/J	8Rf\J	8FF#	.	.	.	.	.	8ee	.	8r	.
16.Rcc/LL	32Rff\KLL	8FF#	.	8r	.	8r	.	8dd	.	8r	.
.	16Rff\	.	.	.	.	.	.	.	.	.	.
16.Rcc/	32Rff\K	.	.	.	.	.	.	.	.	.	.
.	16Ree\	8FF#J	お	8F#	.	8f#	.	8aJ	.	8A	お
16Rcc/JJ	16Rdd\JJ	.	.	.	.	.	.	.	.	.	.
*v	*v	*	*	*	*	*	*	*	*	*	*
=62	=62	=62	=62	=62	=62	=62	=62	=62	=62	=62
4Raa/	4EE	もう	4e	.	4b	.	4gg	.	4g	もう
*^	*	*	*	*	*	*	*	*	*	*
16r	4r	8.AAL	だ	8.dL	.	8.aL	.	8.ff#L	.	8.f#L	だ
4r	.	.	.	.	.	.	.	.	.	.	.
.	.	16AAJk	け	16c#Jk	.	16aJk	.	16eeJk	.	16eJk	け
.	2r	4.D	.	4.A	.	4.f#	.	4.dd	.	4.d	.
8.r	.	.	.	.	.	.	.	.	.	.	.
4r	.	.	.	.	.	.	.	.	.	.	.
.	.	8r	.	8r	.	8r	.	8r	.	8r	.
*v	*v	*	*	*	*	*	*	*	*	*	*
=63	=63	=63	=63	=63	=63	=63	=63	=63	=63	=63
1r	4GG	.	4d	.	4b	fon	8r	.	2r	.
.	.	.	.	.	.	.	8dd	.	.	.
.	4FF#	.	4d	.	4a	.	8r	.	.	.
.	.	.	.	.	.	.	8dd	.	.	.
.	4EE	.	4B	.	4g	.	8r	.	2r	.
.	.	.	.	.	.	.	8b	.	.	.
.	4DD	.	4A	.	4f#	.	8r	.	.	.
.	.	.	.	.	.	.	8a	.	.	.
=64	=64	=64	=64	=64	=64	=64	=64	=64	=64	=64
1r	4Cn	.	4e	.	4g	.	8r	.	1r	.
.	.	.	.	.	.	.	8g	.	.	.
.	4BB	.	4d	.	4f#	.	8r	.	.	.
.	.	.	.	.	.	.	8g	.	.	.
.	4AA	.	4d	.	4f#	.	4a	.	.	.
.	4AA	.	4c#	.	4e	.	4a	.	.	.
=65	=65	=65	=65	=65	=65	=65	=65	=65	=65	=65
1r	1GG	.	1A	.	1f#	.	1b	.	1d	uh
==	==	==	==	==	==	==	==	==	==	==
*-	*-	*-	*-	*-	*-	*-	*-	*-	*-	*-
